!!!OTL: NICHT MEHR LANGE GEHT ES HIER ZU LANDE
!!!ARE: Europa, Mitteleuropa, Deutschland, Rheinland
!!!SCT: B0602
!!!YEM: Copyright 1995, estate of Helmut Schaffrath.
**kern
*ICvox
*Ivox
*M4/4
*k[b-e-a-]
*E-:
{8e-
8g
=1
4.b-
8b-
8b-
8b-
8g
8e-
=2
4f
4f
8r}
{8f
8f
8g
=3
4.a-
8g
8f
8a-
8cc
8b-
=4
2g
4r}
{8g
8a-
=5
8.cc
16b-
4b-
8b-
8b-
8g
8e-
=6
4a-
4cc
4ee-}
{8dd
8cc
=7
8b-
8ee-
8dd
8cc
8.b-
16b-
8a-
8d
=8
2e-
4r}
==
!!!AGN: Staende -, Seemanns -, Soldaten - Lied
!!!ONB: ESAC (Essen Associative Code) Database: BOEHME
!!!AMT: simple quadruple
!!!AIN: vox
!!!EED: Helmut Schaffrath
!!!EEV: 1.0
*-
